X: 19
T: Sourdes regretz avironez mon cueur
N: Derived from Com3039-Sourdes_regretz_avironez_mon_cueur.krn
C: Loyset Comp\`ere
%%abc-version 2.0
%%abcx-abcm2ps-target-version 5.9.1 (29 Sep 2008)
%%abc-creator hum2abc beta
%%abcx-conversion-date 2019/02/16 20:28:09
%%abc-edited-by Jesse Rodin
%%abc-edited-by Megan K. Eagen
%%abcx-initial-encoding-date 2014/02/23/
%%humdrum-veritas 2790536073
%%humdrum-veritas-data 2486647097
%%linebreak <none>
%%barnumbers 0
L: 1/4
M: 2/1
Q: 1/2=120
V: 1 clef=treble
V: 2 clef=treble-8
V: 3 clef=bass
K: F
[V:1] z8 | 
[V:2] G8 | 
[V:3] z8 | 
[V:1] z8 | 
[V:2] G4G4 | 
[V:3] G,,8 | 
[V:1] D8 | 
[V:2] B8- | 
[V:3] G,,4G,,4 | 
[V:1] D4D4 | 
[V:2] B8 | 
[V:3] B,,4z2B,,2- | 
[V:1] F8 | 
[V:2] z4B4 | 
[V:3] B,,C,D,2B,,2D,2- | 
[V:1] z4F4 | 
[V:2] d6cB | 
[V:3] D,C,B,,A,,B,,4 | 
[V:1] A6GF | 
[V:2] c4d4 | 
[V:3] A,,4D,4 | 
[V:1] G3AB2A2- | 
[V:2] e4d2c2- | 
[V:3] C,4B,,2C,2- | 
[V:1] AGFED2A2- | 
[V:2] cBAGB2c2 | 
[V:3] C,2D,4C,2- | 
[V:1] AGG4^F2 | 
[V:2] G4A4 | 
[V:3] C,2B,,2C,2D,2 | 
[V:1] G8 | 
[V:2] G8- | 
[V:3] _E,3D,C,2B,,A,, | 
[V:1] z4B4 | 
[V:2] G8 | 
[V:3] G,,8- | 
[V:1] B6AG | 
[V:2] z4G4 | 
[V:3] G,,8 | 
[V:1] A3Bc2B2- | 
[V:2] F3GA2G2- | 
[V:3] z8 | 
[V:1] B2AGF4- | 
[V:2] G2FED3E | 
[V:3] G,4A,4 | 
[V:1] F4z4 | 
[V:2] F3GA2B2- | 
[V:3] D,2F,4E,D, | 
[V:1] z4D4 | 
[V:2] B2A2B4- | 
[V:3] C,4B,,4 | 
[V:1] D2D2D2D2 | 
[V:2] B4z4 | 
[V:3] z2B,,3C,D,E, | 
[V:1] C3DEFG2- | 
[V:2] z4G4 | 
[V:3] F,2C,3D,E,2- | 
[V:1] G2F4E2 | 
[V:2] G2G2G2G2 | 
[V:3] E,D,B,,2C,4 | 
[V:1] F4z4 | 
[V:2] F3GABc2- | 
[V:3] z2F,,3G,,A,,2 | 
[V:1] z4C4 | 
[V:2] c2B4A2 | 
[V:3] B,,2D,2C,4 | 
[V:1] D3EF2G2- | 
[V:2] B8 | 
[V:3] B,,3C,D,2_E,2- | 
[V:1] GFEDE4 | 
[V:2] z8 | 
[V:3] E,D,D,4^C,2 | 
[V:1] D4G4 | 
[V:2] F4G3A | 
[V:3] D,4z4 | 
[V:1] G2G2G2G2 | 
[V:2] B2c2cBAG | 
[V:3] z8 | 
[V:1] F4G2A2- | 
[V:2] A4G2c2- | 
[V:3] D,4E,2F,2- | 
[V:1] A2GFE4 | 
[V:2] c2c2c2c2 | 
[V:3] F,2E,D,C,4 | 
[V:1] z2D3EFG | 
[V:2] B8 | 
[V:3] G,3F,D,4 | 
[V:1] A2B4AG | 
[V:2] c2d4cB | 
[V:3] C,2B,,4C,2 | 
[V:1] F16 | 
[V:2] A16 | 
[V:3] D,16 | 
[V:1] z4B4 | 
[V:2] z4d4 | 
[V:3] B,,8 | 
[V:1] B6AG | 
[V:2] d6cB | 
[V:3] B,,4B,,4 | 
[V:1] A4A4 | 
[V:2] c4c4 | 
[V:3] F,8 | 
[V:1] G4F2G2- | 
[V:2] B8- | 
[V:3] G,3F,D,2_E,2- | 
[V:1] G2FED4- | 
[V:2] B8 | 
[V:3] E,2D,C,B,,4- | 
[V:1] D4D4 | 
[V:2] z4B4 | 
[V:3] B,,4B,,4 | 
[V:1] D4D4 | 
[V:2] B4B4 | 
[V:3] B,,4B,,2G,,2- | 
[V:1] D4D4 | 
[V:2] B4B4 | 
[V:3] G,,2A,,2B,,4 | 
[V:1] C3DEFG2- | 
[V:2] A4G2c2 | 
[V:3] F,,G,,A,,B,,C,3E, | 
[V:1] GFF4E2 | 
[V:2] BAGFG4 | 
[V:3] D,4C,4 | 
[V:1] F4z2F2 | 
[V:2] F8 | 
[V:3] z2D,3C,B,,A,, | 
[V:1] G4A4 | 
[V:2] z4F4 | 
[V:3] B,,2C,2A,,4 | 
[V:1] B2AGF4- | 
[V:2] G4A4 | 
[V:3] G,,4D,4 | 
[V:1] F4z2B2 | 
[V:2] B8 | 
[V:3] B,,3C,D,2_E,2- | 
[V:1] B4B2A2- | 
[V:2] z2d2d4 | 
[V:3] E,D,B,,3C,D,=E, | 
[V:1] A2A2G4 | 
[V:2] d2c4c2 | 
[V:3] F,4C,D,E,F, | 
[V:1] z2D3EFG | 
[V:2] B8 | 
[V:3] G,3F,D,4 | 
[V:1] ABcAB2A2- | 
[V:2] c4d3c | 
[V:3] C,4G,2F,2 | 
[V:1] AGG4^F2 | 
[V:2] B2c2A4 | 
[V:3] G,2C,2D,4 | 
[V:1] G8 |]  
[V:2] G8 |]  
[V:3] G,,8 |]  



